assets/img/divisorMarquee.svg

<svg width="56" height="58" viewBox="0 0 56 58" fill="none" xmlns="http://www.w3.org/2000/svg">
<path d="M27.322 0.625399C27.705 0.272134 28.295 0.272133 28.678 0.625398L34.9119 6.37558C35.1264 6.57342 35.4166 6.66771 35.7064 6.63372L44.1297 5.64594C44.6471 5.58526 45.1245 5.93208 45.2267 6.44299L46.8902 14.7592C46.9474 15.0453 47.1268 15.2922 47.3812 15.435L54.7763 19.5869C55.2307 19.842 55.413 20.4032 55.1954 20.8766L51.653 28.5823C51.5311 28.8474 51.5311 29.1526 51.653 29.4177L55.1954 37.1234C55.413 37.5968 55.2307 38.158 54.7763 38.4131L47.3812 42.565C47.1268 42.7078 46.9474 42.9547 46.8902 43.2408L45.2267 51.557C45.1245 52.0679 44.6471 52.4147 44.1297 52.3541L35.7064 51.3663C35.4166 51.3323 35.1264 51.4266 34.9119 51.6244L28.678 57.3746C28.295 57.7279 27.705 57.7279 27.322 57.3746L21.0881 51.6244C20.8736 51.4266 20.5834 51.3323 20.2936 51.3663L11.8704 52.3541C11.3529 52.4147 10.8755 52.0679 10.7733 51.557L9.10982 43.2408C9.05259 42.9547 8.87324 42.7078 8.6188 42.565L1.22367 38.4131C0.769345 38.158 0.587007 37.5968 0.804633 37.1234L4.34699 29.4177C4.46887 29.1526 4.46887 28.8474 4.34699 28.5823L0.804634 20.8766C0.587007 20.4032 0.769343 19.842 1.22367 19.5869L8.6188 15.435C8.87324 15.2922 9.05259 15.0453 9.10982 14.7592L10.7733 6.44299C10.8755 5.93208 11.3529 5.58526 11.8703 5.64594L20.2936 6.63372C20.5834 6.66771 20.8736 6.57342 21.0881 6.37558L27.322 0.625399Z" fill="#955AB1"/>
</svg>

<svg xmlns="http://www.w3.org/2000/svg" width="56" height="58" fill="none"><path fill="#955AB1" d="M27.322.625a1 1 0 0 1 1.356 0l6.234 5.75a1 1 0 0 0 .794.259l8.424-.988a1 1 0 0 1 1.097.797l1.663 8.316a1 1 0 0 0 .491.676l7.395 4.152a1 1 0 0 1 .42 1.29l-3.543 7.705a1 1 0 0 0 0 .836l3.542 7.705a1 1 0 0 1-.419 1.29l-7.395 4.152a1 1 0 0 0-.49.676l-1.664 8.316a1 1 0 0 1-1.097.797l-8.424-.988a1 1 0 0 0-.794.258l-6.234 5.75a1 1 0 0 1-1.356 0l-6.234-5.75a1 1 0 0 0-.794-.258l-8.424.988a1 1 0 0 1-1.097-.797L9.11 43.241a1 1 0 0 0-.491-.676l-7.395-4.152a1 1 0 0 1-.42-1.29l3.543-7.705a1 1 0 0 0 0-.836L.805 20.877a1 1 0 0 1 .419-1.29l7.395-4.152a1 1 0 0 0 .49-.676l1.664-8.316a1 1 0 0 1 1.097-.797l8.424.988a1 1 0 0 0 .794-.258z"/></svg>
